pix_core/t/dockclose.svg

<!DOCTYPE svg PUBLIC "-//W3C//DTD SVG 1.1//EN" "http://www.w3.org/Graphics/SVG/1.1/DTD/svg11.dtd" [
	<!ENTITY ns_flows "http://ns.adobe.com/Flows/1.0/">
]><svg xmlns="http://www.w3.org/2000/svg" width="12" height="12" viewBox="0 0 12 12" preserveAspectRatio="xMinYMid meet" overflow="visible"><path d="M11 0H1C.5 0 0 .5 0 1v10c0 .5.5 1 1 1h10c.5 0 1-.5 1-1V1c0-.5-.5-1-1-1zm0 10c0 .5-.5 1-1 1H2c-.5 0-1-.5-1-1V4c0-.5.5-1 1-1h8c.5 0 1 .5 1 1v6zM8.8 8.4c.2.2.2.5 0 .7l-.7.7c-.2.2-.5.2-.7 0L6 8.4 4.6 9.8c-.2.2-.5.2-.7 0l-.7-.7c-.2-.2-.2-.5 0-.7L4.6 7 3.2 5.5c-.2-.2-.2-.5 0-.7l.7-.7c.2-.2.5-.2.7 0L6 5.6l1.4-1.4c.2-.2.6-.2.7-.1l.7.7c.2.2.2.6.1.8L7.4 7l1.4 1.4z" fill="#7575E0"/></svg>

<?xml version="1.0" encoding="utf-8"?>
<!-- Generator: Adobe Illustrator 15.1.0, SVG Export Plug-In  -->
<!DOCTYPE svg PUBLIC "-//W3C//DTD SVG 1.1//EN" "http://www.w3.org/Graphics/SVG/1.1/DTD/svg11.dtd" [
	<!ENTITY ns_flows "http://ns.adobe.com/Flows/1.0/">
]>
<svg version="1.1"
	 xmlns="http://www.w3.org/2000/svg" xmlns:xlink="http://www.w3.org/1999/xlink" xmlns:a="http://ns.adobe.com/AdobeSVGViewerExtensions/3.0/"
	 x="0px" y="0px" width="12px" height="12px" viewBox="0 0 12 12" style="overflow:visible;enable-background:new 0 0 12 12;"
	 xml:space="preserve" preserveAspectRatio="xMinYMid meet">
<defs>
</defs>
<path style="fill:#7575E0;" d="M11,0H1C0.5,0,0,0.5,0,1v10c0,0.5,0.5,1,1,1h10c0.5,0,1-0.5,1-1V1C12,0.5,11.5,0,11,0z M11,10
	c0,0.5-0.5,1-1,1H2c-0.5,0-1-0.5-1-1V4c0-0.5,0.5-1,1-1h8c0.5,0,1,0.5,1,1V10z M8.8,8.4C9,8.6,9,8.9,8.8,9.1L8.1,9.8
	C7.9,10,7.6,10,7.4,9.8L6,8.4L4.6,9.8C4.4,10,4.1,10,3.9,9.8L3.2,9.1C3,8.9,3,8.6,3.2,8.4L4.6,7L3.2,5.5C3,5.3,3,5,3.2,4.8l0.7-0.7
	c0.2-0.2,0.5-0.2,0.7,0L6,5.6l1.4-1.4C7.6,4,8,4,8.1,4.1l0.7,0.7C9,5,9,5.4,8.9,5.6L7.4,7L8.8,8.4z"/>
</svg>
